!!!COM: Palestrina, Giovanni Perluigi da
!!!OPR: Aspice Domine
!!!OTL: Agnus I
**kern	**kern	**kern	**kern	**kern
*Ibass	*Itenor	*Itenor	*Icalto	*Icant
!Bassus	!Tenor 2	!Tenor 1	!Altus	!Cantus
*clefF4	*clefGv2	*clefGv2	*clefG2	*clefG2
*k[]	*k[]	*k[]	*k[]	*k[]
*D:dor	*D:dor	*D:dor	*D:dor	*D:dor
*M4/2	*M4/2	*M4/2	*M4/2	*M4/2
=1	=1	=1	=1	=1
0r	0r	0r	0d	0r
=2	=2	=2	=2	=2
0r	0A	0r	1.a	0r
.	.	.	2a	.
=3	=3	=3	=3	=3
0D	1.d	0r	2b-	0r
.	.	.	1a	.
.	2d	.	4g	.
.	.	.	4f	.
=4	=4	=4	=4	=4
1.A	1c	0r	1e	0a
.	[1f	.	[1a	.
2A	.	.	.	.
=5	=5	=5	=5	=5
0B-	2f]	0d	2a]	1.dd
.	2e	.	4g	.
.	.	.	4f	.
.	1d	.	2g	.
.	.	.	[2f	2dd
=6	=6	=6	=6	=6
0A	2r	1.a	2f]	0cc
.	1A	.	4e	.
.	.	.	4d	.
.	.	.	1e	.
.	[2a	2a	.	.
=7	=7	=7	=7	=7
1.d	4a]	2f	4d	1.ff
.	4g	.	4e	.
.	4f	4d	4f	.
.	4e	4e	4g	.
.	2d	4f	1a	.
.	.	4g	.	.
2c	2e	[2a	.	2ee
=8	=8	=8	=8	=8
1B-	2f	2a]	1r	1.dd
.	2d	2g	.	.
[1A	2r	1a	[1e	.
.	[2a	.	.	4cc
.	.	.	.	4b
=9	=9	=9	=9	=9
1A]	2a]	0A	1e]	2.cc
.	2g	.	.	.
.	.	.	.	4b
1r	2f	.	[1a	4cc
.	.	.	.	4dd
.	2e	.	.	[2ee
=10	=10	=10	=10	=10
0D	0f	1.d	2a]	2ee]
.	.	.	2a	4dd
.	.	.	.	4cc#
.	.	.	1a	1dd
.	.	2d	.	.
=11	=11	=11	=11	=11
1.A	1e	1c	1a	2.ee
.	.	.	.	4dd
.	[1a	[1f	1r	4cc
.	.	.	.	4b
2A	.	.	.	2a
=12	=12	=12	=12	=12
0B-	2a]	2f]	0d	0dd
.	4g	2e	.	.
.	4f	.	.	.
.	2g	[1d	.	.
.	[2f	.	.	.
=13	=13	=13	=13	=13
0A	2f]	2d]	1.a	0r
.	4e	4c	.	.
.	4d	4B	.	.
.	2e	1c#	.	.
.	2f#	.	2a	.
=14	=14	=14	=14	=14
0G	1g	1d	0b-	0r
.	[1d	1g	.	.
=15	=15	=15	=15	=15
1d	1d]	2.f	2.a	0a
.	.	4e	4g	.
[1d	[1a	2d	2f	.
.	.	4c	4e	.
.	.	4B-	4d	.
=16	=16	=16	=16	=16
2d]	2a]	0A	0e	1.ee
4c	2a	.	.	.
4B	.	.	.	.
1c#	1a	.	.	.
.	.	.	.	2ee
=17	=17	=17	=17	=17
1d	2f	2r	2d	1ff
.	2d	1f	2.a	.
[1D	2.f	.	.	2dd
.	.	.	4g	.
.	.	2d	4f	[2ff
.	4g	.	4e	.
=18	=18	=18	=18	=18
1D]	2a	1f	1d	2ff]
.	2.A	.	.	4ee
.	.	.	.	4dd
[1A	.	1e	2e	2cc
.	4B	.	.	.
.	4c	.	2cc	2a
.	4d	.	.	.
=19	=19	=19	=19	=19
2A]	2e	2c	2a	2.cc
2A	2f	2A	2.cc	.
.	.	.	.	4dd
2A	2e	2c	.	2ee
.	.	.	4b-	.
[2D	[2a	4d	4a	[2ff
.	.	4e	4g	.
=20	=20	=20	=20	=20
4D]	4a]	4f	1a	4ff]
4E	4g	4g	.	4ee
4F	2f	2.a	.	1dd
4G	.	.	.	.
1A	1e	.	1a	.
.	.	4g	.	.
.	.	2e	.	2cc#
=21	=21	=21	=21	=21
0D	0d	0f#	2r	1dd
.	.	.	2a	.
.	.	.	2a	2r
.	.	.	2a	2dd
=22	=22	=22	=22	=22
0r	0r	1g	1b-	2dd
.	.	.	.	2dd
.	.	1d	2a	1ff
.	.	.	2f	.
=23	=23	=23	=23	=23
0r	1r	0r	2g	2ee
.	.	.	2a	2cc
.	2r	.	4d	2.dd
.	.	.	4e	.
.	2d	.	4f	.
.	.	.	4g	4ee
=24	=24	=24	=24	=24
0r	2d	0r	2a	4ff
.	.	.	.	4ee
.	2d	.	2.b-	4dd
.	.	.	.	4cc
.	1f	.	.	4dd
.	.	.	4a	4cc
.	.	.	[2a	4cc
.	.	.	.	8b
.	.	.	.	8a
=25	=25	=25	=25	=25
0r	1e	2r	2a]	1b
.	.	2e	2g#	.
.	1A	2e	2a	2a
.	.	2e	[2cc	2ee
=26	=26	=26	=26	=26
0r	2r	1f	2cc]	2cc
.	2.a	.	4b	2dd
.	.	.	4a	.
.	.	1e	1b	1ee
.	8g	.	.	.
.	8f#	.	.	.
.	2g#	.	.	.
=27	=27	=27	=27	=27
1A	2a	4A	2.cc	0ee
.	.	4B	.	.
.	4A	4c	.	.
.	4B	4d	4b	.
2A	4c	2e	4a	.
.	4d	.	4g	.
2A	[2e	2c	[2a	.
=28	=28	=28	=28	=28
1B-	2e]	1d	2a]	1r
.	1d	.	2g	.
1A	.	1e	1a	2r
.	4c	.	.	2ee
.	4B	.	.	.
=29	=29	=29	=29	=29
1A	1c#	2r	0a	2ee
.	.	2A	.	2ee
4D	2d	2A	.	1ff
4E	.	.	.	.
4F	2a	2A	.	.
4G	.	.	.	.
=30	=30	=30	=30	=30
1A	2a	1c	2r	1ee
.	2e	.	2a	.
1D	1f	4d	2a	2.dd
.	.	4e	.	.
.	.	4f	2a	.
.	.	4g	.	4ee
=31	=31	=31	=31	=31
0r	2f	2a	1cc	2ff
.	2c	2g	.	1ee
.	1d	1f	2a	.
.	.	.	2b	2dd
=32	=32	=32	=32	=32
2r	1A	1e	2.cc	2.ee
1A	.	.	.	.
.	.	.	4b	4dd
.	2r	1r	2.a	2cc
2D	[2d	.	.	2dd
.	.	.	4g	.
=33	=33	=33	=33	=33
2.F	2d]	2r	1f	1a
.	2A	1a	.	.
4G	.	.	.	.
[1A	2.c	.	1e	1r
.	.	2A	.	.
.	4d	.	.	.
=34	=34	=34	=34	=34
2A]	2e	1c	0r	0r
2A	1f	.	.	.
1B-	.	1d	.	.
.	4e	.	.	.
.	4d	.	.	.
=35	=35	=35	=35	=35
2.A	2.c	1e	0r	2r
.	.	.	.	1ee
4B	4d	.	.	.
2c	2e	2A	.	.
2d	2f	[2a	.	2a
=36	=36	=36	=36	=36
2A	2e	4a]	1r	2cc
.	.	4g	.	.
1d	2d	2f	.	2dd
.	1A	1e	2r	1ee
2c#	.	.	[2a	.
=37	=37	=37	=37	=37
2.d	0r	2d	2a]	2.ff
.	.	1f	2d	.
4c	.	.	.	4ee
1B-	.	.	2f	1dd
.	.	4e	2g	.
.	.	4d	.	.
=38	=38	=38	=38	=38
1A	2r	1e	2.a	2.cc
.	1a	.	.	.
.	.	.	4b	4dd
1r	.	1r	4cc	2ee
.	.	.	4b	.
.	2d	.	4a	[2ff
.	.	.	4g	.
=39	=39	=39	=39	=39
0r	2f	2r	2a	4ff]
.	.	.	.	4ee
.	2g	1.r	2.b	2.dd
.	1a	.	.	.
.	.	.	4a	4cc
.	.	.	[2a	4cc
.	.	.	.	8b
.	.	.	.	8a
=40	=40	=40	=40	=40
0r	1e	2r	2a]	1b
.	.	1e	2g	.
.	4A	.	[1cc	[1a
.	4B	.	.	.
.	4c	2A	.	.
.	4d	.	.	.
=41	=41	=41	=41	=41
0r	4e	2c	2cc]	1a]
.	4A	.	.	.
.	1a	2d	2a	.
.	.	1e	2cc	2r
.	2g#	.	2b	[2ee
=42	=42	=42	=42	=42
2r	1a	4A	1cc	2ee]
.	.	4B	.	.
1A	.	4c	.	2a
.	.	4d	.	.
.	[1A	2e	[1a	2cc
2D	.	[2f	.	2dd
=43	=43	=43	=43	=43
2F	2A]	4f]	2a]	2cc
.	.	4e	.	.
2G	2B	2d	4g	2.b
.	.	.	4f	.
1A	2.c	2c	1e	.
.	.	.	.	4a
.	.	2A	.	[2a
.	4d	.	.	.
=44	=44	=44	=44	=44
0E	1e	0B	2r	2a]
.	.	.	1e	4g
.	.	.	.	4f#
.	2r	.	.	1g#
.	[2e	.	2B	.
=45	=45	=45	=45	=45
2r	2e]	[0A	2.c	[0a
1A	2A	.	.	.
.	.	.	4d	.
.	2c	.	2e	.
2D	[2d	.	[2f	.
=46	=46	=46	=46	=46
2.F	4d]	1A_	4f]	1a_
.	4c	.	4e	.
.	1f	.	1d	.
4G	.	.	.	.
2A	.	1A_	.	1a_
2A	2e	.	2c	.
=47	=47	=47	=47	=47
0D	0d	0A]	0f	0a]
=48	=48	=48	=48	=48
[0A	[0c#	[0A	[0e	[0a
=49	=49	=49	=49	=49
0A]	0c#]	0A]	0e]	0a]
==	==	==	==	==
*-	*-	*-	*-	*-
!!!CDT: 1525/^1526/-1594/2/2
!!!OCY: Italia
!!!AGN: Mass (Parody)
!!!AST: renaissance, vocal
!!!ASW: Motet (Jacquet)
!!!PWK: Masses, Book 2
!!!RNB: Cadence finals: A
!!!YOR: Le Opere Complete, v. 4, p. 91
!!!YOO: Rome, Italy: Fratelli Scalera
!!!END: 1992//
!!!EED: John Miller
!!!YEC: Copyright 2000, John Miller
!!!YEN: United States of America
!!!YEM: Rights to all derivative electronic formats reserved.
!!!YEM: Refer to licensing agreement for further details.
!!!YEM: This file must be accompanied by the licensing agreement.
!!!YEM: A copy of the licensing agreement may be found at http://www.music-cog.ohio-state.edu/HumdrumDatabases/Palestrina/license.txt
!!!EMD: converted to Humdrum by Bret Aarden
